X:32
T:Reil\"ander
R:reil\"ander
A:Norge
Z:id:hn-schottis-32
M:C|
K:A
c2cB c2cB|cdcB BAAc|efed BcdB|cdcB A2E2|
c2cB c2cB|cdcB BAAc|efec edBG|A2B2 A4:|
|:agae b2a2|cdef fecA|BABc dBGB|A2B2 A4|
agae b2a2|cdef fecA|BABc dBGB|A2B2 A4:|
<end>
<start>
